svgs/regular/building-ngo.svg

<svg xmlns="http://www.w3.org/2000/svg" viewBox="0 0 384 512"><!--! Font Awesome Pro 6.4.2 by @fontawesome - https://fontawesome.com License - https://fontawesome.com/license (Commercial License) Copyright 2023 Fonticons, Inc. --><path d="M320 48H64 2C9.1 20.4 34.2 0 64 0H320c29.8 0 54.9 20.4 62 48H320zm16 192h48V448c0 35.3-28.7 64-64 64H64c-35.3 0-64-28.7-64-64V240H48V448c0 8.8 7.2 16 16 16h80V400c0-26.5 21.5-48 48-48s48 21.5 48 48v64h80c8.8 0 16-7.2 16-16V240zM168 80h48c8.8 0 16 7.2 16 16s-7.2 16-16 16H184v64h16V160c0-8.8 7.2-16 16-16s16 7.2 16 16v24c0 13.3-10.7 24-24 24H176c-13.3 0-24-10.7-24-24V96c0-8.8 7.2-16 16-16zm136 32c-8.8 0-16 7.2-16 16v32c0 8.8 7.2 16 16 16s16-7.2 16-16V128c0-8.8-7.2-16-16-16zm-48 16c0-26.5 21.5-48 48-48s48 21.5 48 48v32c0 26.5-21.5 48-48 48s-48-21.5-48-48V128zM61.3 87.1l34.7 52V96c0-8.8 7.2-16 16-16s16 7.2 16 16v96c0 7.1-4.6 13.3-11.4 15.3s-14-.6-17.9-6.4L64 148.8V192c0 8.8-7.2 16-16 16s-16-7.2-16-16V96c0-7.1 4.6-13.3 11.4-15.3s14 .6 17.9 6.4zM88 264c0-8.8 7.2-16 16-16h48c8.8 0 16 7.2 16 16v48c0 8.8-7.2 16-16 16H104c-8.8 0-16-7.2-16-16V264zm144-16h48c8.8 0 16 7.2 16 16v48c0 8.8-7.2 16-16 16H232c-8.8 0-16-7.2-16-16V264c0-8.8 7.2-16 16-16z"/></svg>

<svg xmlns="http://www.w3.org/2000/svg" viewBox="0 0 384 512"><!--! Font Awesome Pro 6.1.1 by @fontawesome - https://fontawesome.com License - https://fontawesome.com/license (Commercial License) Copyright 2022 Fonticons, Inc. --><path d="M2.016 48C9.121 20.4 34.18 0 64 0H320C349.8 0 374.9 20.4 381.1 48H2.016zM336 240H384V448C384 483.3 355.3 512 320 512H64C28.65 512 0 483.3 0 448V240H48V448C48 456.8 55.16 464 64 464H144V400C144 373.5 165.5 352 192 352C218.5 352 240 373.5 240 400V464H320C328.8 464 336 456.8 336 448V240zM216 80C224.8 80 232 87.16 232 96C232 104.8 224.8 112 216 112H184V176H200V160C200 151.2 207.2 144 216 144C224.8 144 232 151.2 232 160V184C232 197.3 221.3 208 208 208H176C162.7 208 152 197.3 152 184V96C152 87.16 159.2 80 168 80H216zM256 128C256 101.5 277.5 80 304 80C330.5 80 352 101.5 352 128V160C352 186.5 330.5 208 304 208C277.5 208 256 186.5 256 160V128zM304 112C295.2 112 288 119.2 288 128V160C288 168.8 295.2 176 304 176C312.8 176 320 168.8 320 160V128C320 119.2 312.8 112 304 112zM96 139.2V96C96 87.16 103.2 80 112 80C120.8 80 128 87.16 128 96V192C128 199.1 123.4 205.3 116.6 207.3C109.9 209.4 102.6 206.7 98.69 200.9L64 148.8V192C64 200.8 56.84 208 48 208C39.16 208 32 200.8 32 192V96C32 88.95 36.62 82.73 43.36 80.69C50.11 78.64 57.4 81.26 61.31 87.12L96 139.2zM88 264C88 255.2 95.16 248 104 248H152C160.8 248 168 255.2 168 264V312C168 320.8 160.8 328 152 328H104C95.16 328 88 320.8 88 312V264zM280 248C288.8 248 296 255.2 296 264V312C296 320.8 288.8 328 280 328H232C223.2 328 216 320.8 216 312V264C216 255.2 223.2 248 232 248H280z"/></svg>
